findly-builder/apps/searchassist/src/assets/images/markup/italic.svg

<?xml version="1.0" encoding="UTF-8"?>
<svg width="5px" height="12px" viewBox="0 0 5 12" version="1.1" xmlns="http://www.w3.org/2000/svg" xmlns:xlink="http://www.w3.org/1999/xlink">
    <title>icons8-italic</title>
    <g id="Page-1" stroke="none" stroke-width="1" fill="none" fill-rule="evenodd">
        <g id="Custom-Preset-Copy" transform="translate(-656.000000, -95.000000)" fill="#FFFFFF" fill-rule="nonzero">
            <g id="icons8-italic" transform="translate(656.000000, 95.000000)">
                <path d="M2.9917234,0 C2.95374865,0.00106449951 2.9167478,0.00425718065 2.87974696,0.0117073149 L1.50292114,0.0117073149 C1.32278489,0.0085143613 1.15628045,0.111751196 1.06572549,0.282038422 C0.974196646,0.451261149 0.974196646,0.661991727 1.06572549,0.831214454 C1.15628045,1.00150168 1.32278489,1.10473851 1.50292114,1.10154556 L2.22054522,1.10154556 L1.27604682,10.9100898 L0.505842284,10.9100898 C0.325706029,10.9068968 0.159201587,11.0101337 0.068646636,11.1804209 C-0.022882212,11.3496436 -0.022882212,11.5603742 0.068646636,11.7295969 C0.159201587,11.8998841 0.325706029,12.003121 0.505842284,12 L3.49707886,12 C3.67721511,12.003121 3.84371955,11.8998841 3.93427451,11.7295969 C4.02580335,11.5603742 4.02580335,11.3496436 3.93427451,11.1804209 C3.84371955,11.0101337 3.67721511,10.9068968 3.49707886,10.9100898 L2.77945478,10.9100898 L3.72395318,1.10154556 L4.49415772,1.10154556 C4.67429397,1.10473851 4.84079841,1.00150168 4.93135336,0.831214454 C5.02288221,0.661991727 5.02288221,0.451261149 4.93135336,0.282038422 C4.84079841,0.111751196 4.67429397,0.0085143613 4.49415772,0.0117073149 L3.12025309,0.0117073149 C3.07740986,0.00425718065 3.03456663,0 2.9917234,0 Z" id="Path"></path>
            </g>
        </g>
    </g>
</svg>

<svg width="5" height="12" xmlns="http://www.w3.org/2000/svg"><path d="M2.992 0a.656.656 0 0 0-.112.012H1.503a.489.489 0 0 0-.437.27.584.584 0 0 0 0 .55c.09.17.257.273.437.27h.718l-.945 9.808h-.77a.489.489 0 0 0-.437.27.584.584 0 0 0 0 .55c.09.17.257.273.437.27h2.991c.18.003.347-.1.437-.27a.584.584 0 0 0 0-.55.489.489 0 0 0-.437-.27H2.78l.945-9.808h.77c.18.003.347-.1.437-.27a.584.584 0 0 0 0-.55.489.489 0 0 0-.437-.27H3.12A.75.75 0 0 0 2.992 0Z" fill="#FFF"/></svg>
